X: 14396
T: Galway Bay
R: hornpipe
M: 4/4
K: Gdorian
GA|BABc dcdf|gfdf gabg|fdbg fdcd|BAGA GFDC|
GFGA BABG|FEFG AGFD|GABc dcBA|B2 G2 G2 D2|
~G3 D GABc|dggf gabg|fdbg fdcd|BAGA GF D2|
GDGA BABG|FEFG AGFD|GABc dcBA|B2 G2 G2 ba||
gfdf gaba|gfd_e dBGA|BABc dcde|fdcB AGFA|
BFdB AFcA|BFdB cd_ec|dfga bagf|d2 g2 g2 df|
gfdf gaba|gfd_e dBGA|B3 c dcde|fdcB AGFz|
BFDB AFcA|BFdB ABc_e|d2 ga bagf|d2 g2 g2 dc||

